X:4
T:Guittar, The
M:6/8
L:1/8
B:Thompson's Compleat Collection of 200 Favourite Country Dances, vol. 2 (London, 1765)
Z:Transcribed and edited by Flynn Titford-Mock, 2007
Z:abc's:AK/Fiddler's Companion
K:D
A | FDF AFA | dAd fdf | afd ceg | fed cBA | fdf dAd | AFA FDF | cde gfg | agf e2 :|
|: e | edc BAG | FGA Bcd | cde g2f | eee e2a | daa dbb | daa dbb | afd Bec | d2d d2 :|

